svg/emoji_u1f9b3.svg

<svg enable-background="new 0 0 128 128" viewBox="0 0 128 128" xmlns="http://www.w3.org/2000/svg" xmlns:xlink="http://www.w3.org/1999/xlink"><radialGradient id="c" cx="64.436" cy="14.875" r="79.341" gradientUnits="userSpaceOnUse"><stop stop-color="#fff" offset="0"/><stop stop-color="#F8F8F8" offset=".298"/><stop stop-color="#E6E6E6" offset=".7178"/><stop stop-color="#D6D6D6" offset=".9957"/></radialGradient><path d="m64.04 14.48h-0.03s-0.02 0-0.03 0c-73.79 0.39-58.68 84.68-58.68 84.68s8.29 14.6 8.28 14.31c-0.27-11.78 4.45-32.63 7.79-41.5 1.68-4.48 6.33-7.08 11.04-6.23 7.23 1.31 18.75 2.93 31.46 2.93h0.14 0.14c12.71 0 24.23-1.62 31.46-2.93 4.71-0.85 9.35 1.75 11.04 6.23 3.34 8.88 8.06 29.73 7.79 41.5-0.01 0.29 8.28-14.31 8.28-14.31s15.12-84.29-58.68-84.68z" fill="url(#c)"/><defs><path id="b" d="m64.01 14.53h-0.03s-0.02 0-0.03 0c-73.79 0.39-58.67 84.68-58.67 84.68s8.29 14.6 8.28 14.31c-0.05-2.3 0.74-11.2 0.74-11.2l-4.35-4.75s6.32-41.31 11.02-40.46c7.23 1.31 43.1 3.25 43.15 3.25 12.71 0 24.23-0.58 31.46-1.89 4.71-0.85 15.66 2.76 17.35 7.23 2.16 5.75 5.08 32.02 5.08 32.02l-4.35 4.6s0.8 8.94 0.74 11.2c-0.01 0.29 8.28-14.31 8.28-14.31s15.13-84.29-58.67-84.68z"/></defs><clipPath id="a"><use xlink:href="#b"/></clipPath><g clip-path="url(#a)"><path d="m68.83 14.53m-4.84 4.87c18.38 0.1 32.37 5.75 41.58 16.8 17.55 21.05 13.29 55.75 12.46 61.37-0.04 0.06-0.07 0.12-0.11 0.19-1.65-10.45-4.48-21.49-6.73-27.46-2.15-5.71-7.7-9.55-13.81-9.55-0.89 0-1.78 0.08-2.65 0.24-7.19 1.3-18.33 2.86-30.59 2.86h-0.08-0.06-0.06-0.07c-12.26 0-23.41-1.55-30.59-2.86-0.88-0.16-1.77-0.24-2.65-0.24-6.11 0-11.66 3.84-13.81 9.55-2.25 5.98-5.08 17.01-6.73 27.46-0.04-0.06-0.07-0.12-0.11-0.19-0.86-5.63-5.12-40.32 12.43-61.37 9.21-11.05 23.2-16.7 41.58-16.8m0.02-4.87h-0.03s-0.02 0-0.03 0c-73.79 0.39-58.67 84.68-58.67 84.68s8.12 14.31 8.28 14.31c-0.27-11.78 4.45-32.63 7.79-41.5 1.47-3.91 5.2-6.39 9.25-6.39 0.59 0 1.19 0.05 1.79 0.16 7.23 1.31 18.75 2.93 31.46 2.93h0.14 0.14c12.71 0 24.23-1.62 31.46-2.93 0.6-0.11 1.2-0.16 1.79-0.16 4.05 0 7.78 2.48 9.25 6.39 3.34 8.88 8.06 29.73 7.79 41.5 0.15 0 8.28-14.31 8.28-14.31s15.11-84.29-58.69-84.68z" fill="#B0B0B0"/></g><path d="m128 0h-4c-0.55 0-1 0.45-1 1s0.45 1 1 1h4v-2zm-12 0h-4c-0.55 0-1 0.45-1 1s0.45 1 1 1h4c0.55 0 1-0.45 1-1s-0.45-1-1-1zm-12 0h-4c-0.55 0-1 0.45-1 1s0.45 1 1 1h4c0.55 0 1-0.45 1-1s-0.45-1-1-1zm-12 0h-4c-0.55 0-1 0.45-1 1s0.45 1 1 1h4c0.55 0 1-0.45 1-1s-0.45-1-1-1zm-12 0h-4c-0.55 0-1 0.45-1 1s0.45 1 1 1h4c0.55 0 1-0.45 1-1s-0.45-1-1-1zm-12 0h-4c-0.55 0-1 0.45-1 1s0.45 1 1 1h4c0.55 0 1-0.45 1-1s-0.45-1-1-1zm-12 0h-4c-0.55 0-1 0.45-1 1s0.45 1 1 1h4c0.55 0 1-0.45 1-1s-0.45-1-1-1zm-12 0h-4c-0.55 0-1 0.45-1 1s0.45 1 1 1h4c0.55 0 1-0.45 1-1s-0.45-1-1-1zm-12 0h-4c-0.55 0-1 0.45-1 1s0.45 1 1 1h4c0.55 0 1-0.45 1-1s-0.45-1-1-1zm-12 0h-4c-0.55 0-1 0.45-1 1s0.45 1 1 1h4c0.55 0 1-0.45 1-1s-0.45-1-1-1zm-12 0h-4c-0.55 0-1 0.45-1 1s0.45 1 1 1h4c0.55 0 1-0.45 1-1s-0.45-1-1-1zm-7 3c-0.55 0-1 0.45-1 1v4c0 0.55 0.45 1 1 1s1-0.45 1-1v-4c0-0.55-0.45-1-1-1zm0 12c-0.55 0-1 0.45-1 1v4c0 0.55 0.45 1 1 1s1-0.45 1-1v-4c0-0.55-0.45-1-1-1zm0 12c-0.55 0-1 0.45-1 1v4c0 0.55 0.45 1 1 1s1-0.45 1-1v-4c0-0.55-0.45-1-1-1zm0 12c-0.55 0-1 0.45-1 1v4c0 0.55 0.45 1 1 1s1-0.45 1-1v-4c0-0.55-0.45-1-1-1zm0 12c-0.55 0-1 0.45-1 1v4c0 0.55 0.45 1 1 1s1-0.45 1-1v-4c0-0.55-0.45-1-1-1zm0 12c-0.55 0-1 0.45-1 1v4c0 0.55 0.45 1 1 1s1-0.45 1-1v-4c0-0.55-0.45-1-1-1zm0 12c-0.55 0-1 0.45-1 1v4c0 0.55 0.45 1 1 1s1-0.45 1-1v-4c0-0.55-0.45-1-1-1zm0 12c-0.55 0-1 0.45-1 1v4c0 0.55 0.45 1 1 1s1-0.45 1-1v-4c0-0.55-0.45-1-1-1zm0 12c-0.55 0-1 0.45-1 1v4c0 0.55 0.45 1 1 1s1-0.45 1-1v-4c0-0.55-0.45-1-1-1zm0 12c-0.55 0-1 0.45-1 1v4c0 0.55 0.45 1 1 1s1-0.45 1-1v-4c0-0.55-0.45-1-1-1zm0 12c-0.55 0-1 0.45-1 1v4h2v-4c0-0.55-0.45-1-1-1zm11 3h-4c-0.55 0-1 0.45-1 1s0.45 1 1 1h4c0.55 0 1-0.45 1-1s-0.45-1-1-1zm12 0h-4c-0.55 0-1 0.45-1 1s0.45 1 1 1h4c0.55 0 1-0.45 1-1s-0.45-1-1-1zm12 0h-4c-0.55 0-1 0.45-1 1s0.45 1 1 1h4c0.55 0 1-0.45 1-1s-0.45-1-1-1zm12 0h-4c-0.55 0-1 0.45-1 1s0.45 1 1 1h4c0.55 0 1-0.45 1-1s-0.45-1-1-1zm12 0h-4c-0.55 0-1 0.45-1 1s0.45 1 1 1h4c0.55 0 1-0.45 1-1s-0.45-1-1-1zm12 0h-4c-0.55 0-1 0.45-1 1s0.45 1 1 1h4c0.55 0 1-0.45 1-1s-0.45-1-1-1zm12 0h-4c-0.55 0-1 0.45-1 1s0.45 1 1 1h4c0.55 0 1-0.45 1-1s-0.45-1-1-1zm12 0h-4c-0.55 0-1 0.45-1 1s0.45 1 1 1h4c0.55 0 1-0.45 1-1s-0.45-1-1-1zm12 0h-4c-0.55 0-1 0.45-1 1s0.45 1 1 1h4c0.55 0 1-0.45 1-1s-0.45-1-1-1zm12 0h-4c-0.55 0-1 0.45-1 1s0.45 1 1 1h4c0.55 0 1-0.45 1-1s-0.45-1-1-1zm7-3c-0.55 0-1 0.45-1 1v4h2v-4c0-0.55-0.45-1-1-1zm0-12c-0.55 0-1 0.45-1 1v4c0 0.55 0.45 1 1 1s1-0.45 1-1v-4c0-0.55-0.45-1-1-1zm0-12c-0.55 0-1 0.45-1 1v4c0 0.55 0.45 1 1 1s1-0.45 1-1v-4c0-0.55-0.45-1-1-1zm0-12c-0.55 0-1 0.45-1 1v4c0 0.55 0.45 1 1 1s1-0.45 1-1v-4c0-0.55-0.45-1-1-1zm0-12c-0.55 0-1 0.45-1 1v4c0 0.55 0.45 1 1 1s1-0.45 1-1v-4c0-0.55-0.45-1-1-1zm0-12c-0.55 0-1 0.45-1 1v4c0 0.55 0.45 1 1 1s1-0.45 1-1v-4c0-0.55-0.45-1-1-1zm0-12c-0.55 0-1 0.45-1 1v4c0 0.55 0.45 1 1 1s1-0.45 1-1v-4c0-0.55-0.45-1-1-1zm0-12c-0.55 0-1 0.45-1 1v4c0 0.55 0.45 1 1 1s1-0.45 1-1v-4c0-0.55-0.45-1-1-1zm0-12c-0.55 0-1 0.45-1 1v4c0 0.55 0.45 1 1 1s1-0.45 1-1v-4c0-0.55-0.45-1-1-1zm0-12c-0.55 0-1 0.45-1 1v4c0 0.55 0.45 1 1 1s1-0.45 1-1v-4c0-0.55-0.45-1-1-1zm0-12c-0.55 0-1 0.45-1 1v4c0 0.55 0.45 1 1 1s1-0.45 1-1v-4c0-0.55-0.45-1-1-1z"/></svg>

<svg width="128" height="128" viewBox="0 0 128 128" fill="none" xmlns="http://www.w3.org/2000/svg">
<g filter="url(#filter0_i_183_100)">
<path d="M64.04 14.48H64.01C64.01 14.48 63.99 14.48 63.98 14.48C-9.81002 14.87 5.29998 99.16 5.29998 99.16C5.29998 99.16 13.59 113.76 13.58 113.47C13.31 101.69 18.03 80.84 21.37 71.97C23.05 67.49 27.7 64.89 32.41 65.74C39.64 67.05 51.16 68.67 63.87 68.67H64.01H64.15C76.86 68.67 88.38 67.05 95.61 65.74C100.32 64.89 104.96 67.49 106.65 71.97C109.99 80.85 114.71 101.7 114.44 113.47C114.43 113.76 122.72 99.16 122.72 99.16C122.72 99.16 137.84 14.87 64.04 14.48Z" fill="url(#paint0_radial_183_100)" style=""/>
</g>
<defs>
<filter id="filter0_i_183_100" x="4.02441" y="14.48" width="119.973" height="103.994" filterUnits="userSpaceOnUse" color-interpolation-filters="sRGB">
<feFlood flood-opacity="0" result="BackgroundImageFix"/>
<feBlend mode="normal" in="SourceGraphic" in2="BackgroundImageFix" result="shape"/>
<feColorMatrix in="SourceAlpha" type="matrix" values="0 0 0 0 0 0 0 0 0 0 0 0 0 0 0 0 0 0 127 0" result="hardAlpha"/>
<feOffset dy="5"/>
<feGaussianBlur stdDeviation="5"/>
<feComposite in2="hardAlpha" operator="arithmetic" k2="-1" k3="1"/>
<feColorMatrix type="matrix" values="0 0 0 0 1 0 0 0 0 1 0 0 0 0 1 0 0 0 1 0"/>
<feBlend mode="normal" in2="shape" result="effect1_innerShadow_183_100"/>
</filter>
<radialGradient id="paint0_radial_183_100" cx="0" cy="0" r="1" gradientUnits="userSpaceOnUse" gradientTransform="translate(64.436 14.875) scale(79.341)">
<stop stop-color="white" style="stop-color:white;stop-opacity:1;"/>
<stop offset="0.298" stop-color="#F8F8F8" style="stop-color:#F8F8F8;stop-color:color(display-p3 0.9725 0.9725 0.9725);stop-opacity:1;"/>
<stop offset="0.7178" stop-color="#E6E6E6" style="stop-color:#E6E6E6;stop-color:color(display-p3 0.9020 0.9020 0.9020);stop-opacity:1;"/>
<stop offset="0.9957" stop-color="#D6D6D6" style="stop-color:#D6D6D6;stop-color:color(display-p3 0.8392 0.8392 0.8392);stop-opacity:1;"/>
</radialGradient>
</defs>
</svg>
